hosted_logos/informatica.svg

<?xml version="1.0" encoding="UTF-8"?>
<svg width="312px" height="79px" viewBox="0 0 312 79" version="1.1" xmlns="http://www.w3.org/2000/svg" xmlns:xlink="http://www.w3.org/1999/xlink">
    <!-- Generator: Sketch 55.2 (78181) - https://sketchapp.com -->
    <title>logo-informatica</title>
    <desc>Created with Sketch.</desc>
    <g id="logo-informatica" stroke="none" stroke-width="1" fill="none" fill-rule="evenodd">
        <g id="Logo/Informatica" transform="translate(0.000000, 0.133333)">
            <g id="Group-32">
                <g>
                    <polygon id="Fill-1" fill="#FF4D00" points="34.2943227 45.02225 57.2570237 58.0385 58.1130753 48.14225 51.7375753 41.25875 42.3290237 39.684125"></polygon>
                    <polygon id="Fill-2" fill="#FF7D00" points="38.1702804 0.00065 57.2567031 58.03915 76.3415227 38.6919"></polygon>
                    <polygon id="Fill-3" fill="#001AFF" points="35.0998768 30.740775 34.2951242 45.0229 63.6253098 38.693525"></polygon>
                    <polygon id="Fill-4" fill="#E23400" points="20.3807598 59.3532875 24.1768835 54.2004125 23.493966 48.0091625 14.1415227 41.8569125 0.000641237113 38.6946625"></polygon>
                    <polygon id="Fill-5" fill="#FF4D00" points="0 38.6940125 23.4933247 48.0085125 36.1064588 2.0957625"></polygon>
                    <polygon id="Fill-6" fill="#FF7D00" points="20.3807598 59.3532875 38.1702804 77.3875375 54.887332 60.4436625 23.493966 48.0091625"></polygon>
                    <polygon id="Fill-7" fill="#373737" points="101.746375 49.7274375 98.1762876 49.7274375 98.1762876 20.4465625 101.746375 18.3373125"></polygon>
                    <polygon id="Fill-8" fill="#373737" points="261.528076 23.6457 257.856993 23.6457 257.856993 20.767825 257.856993 19.76195 261.528076 19.76195"></polygon>
                    <g id="Group-31" transform="translate(107.407216, 17.262375)" fill="#373737">
                        <path d="M10.2949015,9.8944625 C7.43177784,9.8944625 5.16019536,11.1262125 3.53145309,13.5588375 L3.53145309,10.3559625 L0.0415201031,10.3559625 L0.0415201031,32.4657125 L3.53145309,32.4657125 L3.53145309,19.8394625 C3.53145309,15.9784625 5.95532938,13.2825875 9.42602526,13.2825875 C12.8197727,13.2825875 14.846082,15.6404625 14.846082,19.5875875 L14.846082,32.4657125 L18.337618,32.4657125 L18.337618,18.7929625 C18.337618,16.1685875 17.6066077,13.9504625 16.2215356,12.3742125 C14.7979892,10.7508375 12.7476335,9.8944625 10.2949015,9.8944625" id="Fill-9"></path>
                        <path d="M53.4564113,21.4305 L53.4564113,21.515 C53.4564113,26.1365 50.3271742,29.622125 46.1799732,29.622125 C42.0776588,29.622125 38.8634577,26.024375 38.8634577,21.4305 L38.8634577,21.347625 C38.8634577,16.70175 41.9750608,13.199875 46.1014216,13.199875 C50.2245763,13.199875 53.4564113,16.8155 53.4564113,21.4305 M46.1799732,9.894625 C43.1805866,9.894625 40.4088392,11.113375 38.3745144,13.32825 C36.3882825,15.491125 35.2949732,18.367375 35.2949732,21.4305 L35.2949732,21.515 C35.2949732,27.937 40.0417309,32.968 46.1014216,32.968 C49.1008082,32.968 51.8805711,31.74925 53.9245144,29.534375 C55.9251742,27.36825 57.026499,24.490375 57.026499,21.4305 L57.026499,21.347625 C57.026499,14.925625 52.2605041,9.894625 46.1799732,9.894625" id="Fill-11"></path>
                        <path d="M64.7633454,15.212925 L64.7633454,10.3558 L61.2734124,10.3558 L61.2734124,32.46555 L64.7633454,32.46555 L64.7633454,23.6093 C64.7633454,17.71705 67.8525052,13.76505 72.6329278,13.76505 L73.0946186,13.76505 L73.0946186,9.98855 L72.878201,9.9788 C69.4988814,9.830925 66.5235412,11.771175 64.7633454,15.212925" id="Fill-13"></path>
                        <path d="M100.071304,9.8944625 C97.0526799,9.8944625 94.7073552,11.2285875 92.9134943,13.9715875 C91.5733088,11.3390875 89.2504273,9.8944625 86.3327985,9.8944625 C83.0528706,9.8944625 81.1996954,11.6917125 79.9637108,13.4743375 L79.9637108,10.3559625 L76.4737778,10.3559625 L76.4737778,32.4657125 L79.9637108,32.4657125 L79.9637108,19.8817125 C79.9637108,16.0580875 82.2609428,13.2825875 85.4238448,13.2825875 C88.570716,13.2825875 90.4495407,15.6079625 90.4495407,19.5047125 L90.4495407,32.4657125 L93.9410768,32.4657125 L93.9410768,19.7549625 C93.9410768,17.7838375 94.4909376,16.1230875 95.5297418,14.9563375 C96.4915974,13.8773375 97.8381954,13.2825875 99.3210562,13.2825875 C102.54167,13.2825875 104.386829,15.5819625 104.386829,19.5875875 L104.386829,32.4657125 L107.876762,32.4657125 L107.876762,18.8335875 C107.876762,13.3199625 104.885391,9.8944625 100.071304,9.8944625" id="Fill-15"></path>
                        <path d="M146.215047,13.659425 L146.215047,10.3558 L139.660001,10.3558 L139.660001,2.658175 L136.168464,4.721925 L136.168464,10.3558 L132.367531,10.3558 L132.367531,13.659425 L136.168464,13.659425 L136.168464,26.49855 C136.168464,32.01705 139.921305,32.84255 142.157619,32.84255 C143.560325,32.84255 144.761042,32.5403 145.937712,31.89355 L146.054738,31.82855 L146.054738,28.557425 L145.72931,28.7248 C144.714552,29.24155 143.885753,29.454425 142.869392,29.454425 C140.708423,29.454425 139.660001,28.35105 139.660001,26.080925 L139.660001,13.659425 L146.215047,13.659425 Z" id="Fill-17"></path>
                        <path d="M175.200568,26.472875 C173.339377,28.591875 171.353145,29.6205 169.129655,29.6205 C165.049784,29.6205 161.853217,26.024375 161.853217,21.4305 L161.853217,21.347625 C161.853217,16.778125 164.963217,13.199875 168.932475,13.199875 C171.712238,13.199875 173.474037,14.73225 174.964913,16.391375 L175.133238,16.576625 L177.448104,13.976625 L177.311841,13.82225 C175.689511,11.994125 173.275253,9.894625 168.972552,9.894625 C166.058129,9.894625 163.347299,11.113375 161.340227,13.329875 C159.370026,15.5025 158.284732,18.37875 158.284732,21.4305 L158.284732,21.515 C158.284732,24.545625 159.370026,27.402375 161.340227,29.55875 C163.347299,31.757375 166.058129,32.968 168.972552,32.968 C173.310521,32.968 175.795315,30.6865 177.473753,28.699125 L177.610016,28.53825 L175.357671,26.294125 L175.200568,26.472875 Z" id="Fill-19"></path>
                        <path d="M126.732821,21.8153 L126.732821,24.2788 C126.732821,27.491425 123.893743,29.9143 120.128078,29.9143 C116.755171,29.9143 115.219408,27.796925 115.219408,25.82905 L115.219408,25.74455 C115.219408,23.952175 116.214929,21.8153 120.956877,21.8153 L126.732821,21.8153 Z M121.154058,9.8943 C117.84848,9.8943 115.498346,10.815675 113.633949,11.71755 L113.4528,11.8053 L114.509238,14.878175 L114.736877,14.767675 C116.413712,13.95355 118.311774,13.19955 120.838248,13.19955 C124.589486,13.19955 126.732821,14.94155 126.732821,18.97155 L120.641068,18.97155 C114.951692,18.97155 111.691001,21.485425 111.691001,25.8713 L111.691001,25.954175 C111.691001,30.530175 115.636212,32.925425 119.534934,32.925425 C123.113037,32.925425 125.402254,31.238675 126.732821,29.63155 L126.731218,32.46555 L130.065651,32.46555 L130.065651,19.002425 C130.065651,16.217175 129.339449,13.86905 127.909491,12.352925 C126.372125,10.721425 124.098939,9.8943 121.154058,9.8943 L121.154058,9.8943 Z" id="Fill-21"></path>
                        <path d="M28.2077,8.2948125 C28.2077,5.1130625 29.0140557,3.9203125 31.4924371,3.9203125 C32.4494835,3.9203125 33.2173649,4.1006875 34.3876227,4.4549375 L34.6040402,4.5199375 L34.6040402,1.2455625 L34.531901,1.2179375 C33.4914938,0.8214375 32.4975763,0.6589375 31.0980763,0.6589375 C29.2032206,0.6589375 27.6321897,1.2618125 26.5549113,2.4041875 C25.3525918,3.6798125 24.7161639,5.6574375 24.7161639,8.1274375 L24.7161639,10.3553125 L20.916834,10.3553125 L20.916834,13.6589375 L24.7161639,13.6589375 L24.7161639,32.4650625 L28.2077,32.4650625 L28.2077,13.6589375 L34.7627464,13.6589375 L34.7627464,10.3553125 L28.2077,10.3553125 L28.2077,8.2948125 Z" id="Fill-23"></path>
                        <polygon id="Fill-25" points="154.030124 32.4650625 150.540191 32.4650625 150.540191 12.7066875 150.540191 10.3553125 154.030124 10.3553125"></polygon>
                        <path d="M194.807194,21.816925 L194.807194,24.280425 C194.807194,27.494675 191.968116,29.91755 188.200848,29.91755 C184.827941,29.91755 183.292178,27.79855 183.292178,25.830675 L183.292178,25.746175 C183.292178,23.9538 184.287699,21.816925 189.029647,21.816925 L194.807194,21.816925 Z M189.228431,9.8943 C185.921251,9.8943 183.571116,10.815675 181.70672,11.71755 L181.523967,11.8053 L182.583611,14.878175 L182.809647,14.7693 C184.486482,13.95355 186.386147,13.19955 188.911019,13.19955 C192.663859,13.19955 194.807194,14.943175 194.807194,18.973175 L188.713838,18.973175 C183.024462,18.973175 179.762168,21.48705 179.762168,25.872925 L179.762168,25.9558 C179.762168,30.533425 183.708982,32.928675 187.609307,32.928675 C191.18741,32.928675 193.475024,31.241925 194.807194,29.633175 L194.805591,32.4688 L198.140024,32.4688 L198.140024,19.00405 C198.140024,16.2188 197.413823,13.86905 195.983864,12.352925 C194.446498,10.721425 192.173312,9.8943 189.228431,9.8943 L189.228431,9.8943 Z" id="Fill-27"></path>
                        <path d="M201.029278,12.1723875 L201.474938,12.1723875 C201.611201,12.1691375 201.721814,12.1350125 201.805175,12.0716375 C201.890139,12.0082625 201.930216,11.9253875 201.930216,11.8213875 C201.930216,11.6800125 201.894948,11.5808875 201.819603,11.5223875 C201.74586,11.4638875 201.612804,11.4346375 201.423639,11.4346375 L201.029278,11.4346375 L201.029278,12.1723875 Z M201.029278,12.5428875 L201.029278,13.5195125 L200.626902,13.5195125 L200.626902,11.0641375 L201.41402,11.0641375 C201.705783,11.0641375 201.931819,11.1275125 202.092128,11.2542625 C202.252438,11.3810125 202.332592,11.5630125 202.332592,11.8051375 C202.332592,12.0423875 202.21236,12.2227625 201.96869,12.3478875 C202.199536,12.4453875 202.316561,12.6420125 202.319768,12.9393875 L202.319768,13.1148875 C202.319768,13.2806375 202.335798,13.4008875 202.36786,13.4740125 L202.36786,13.5195125 L201.954262,13.5195125 C201.92701,13.4512625 201.914185,13.3261375 201.914185,13.1490125 C201.914185,12.9702625 201.910979,12.8646375 201.904566,12.8321375 C201.874108,12.6468875 201.75067,12.5493875 201.531046,12.5428875 L201.029278,12.5428875 Z M199.751613,12.3235125 C199.751613,12.6550125 199.826958,12.9621375 199.979252,13.2448875 C200.131546,13.5260125 200.338345,13.7486375 200.599649,13.9078875 C200.862556,14.0687625 201.144701,14.1467625 201.449288,14.1467625 C201.755479,14.1467625 202.039226,14.0671375 202.302134,13.9030125 C202.565041,13.7405125 202.770237,13.5195125 202.919324,13.2400125 C203.068412,12.9605125 203.143757,12.6550125 203.143757,12.3235125 C203.143757,11.9952625 203.068412,11.6913875 202.919324,11.4118875 C202.770237,11.1340125 202.565041,10.9146375 202.302134,10.7537625 C202.039226,10.5928875 201.755479,10.5132625 201.449288,10.5132625 C201.144701,10.5132625 200.860953,10.5912625 200.598046,10.7505125 C200.336742,10.9097625 200.12834,11.1291375 199.977649,11.4102625 C199.826958,11.6930125 199.751613,11.9968875 199.751613,12.3235125 L199.751613,12.3235125 Z M199.422979,12.3251375 C199.422979,11.9351375 199.512752,11.5743875 199.690695,11.2412625 C199.867036,10.9081375 200.113912,10.6448875 200.428118,10.4531375 C200.743927,10.2613875 201.083783,10.1655125 201.449288,10.1655125 C201.814793,10.1655125 202.153046,10.2613875 202.467252,10.4531375 C202.781458,10.6448875 203.026731,10.9081375 203.204675,11.2412625 C203.382618,11.5743875 203.470788,11.9351375 203.470788,12.3251375 C203.470788,12.7053875 203.385824,13.0612625 203.214293,13.3927625 C203.044365,13.7242625 202.800695,13.9907625 202.486489,14.1922625 C202.17068,14.3937625 201.826015,14.4945125 201.449288,14.4945125 C201.074164,14.4945125 200.729499,14.3953875 200.415293,14.1955125 C200.099484,13.9956375 199.855814,13.7291375 199.68268,13.3976375 C199.509546,13.0661375 199.422979,12.7102625 199.422979,12.3251375 L199.422979,12.3251375 Z" id="Fill-29"></path>
                    </g>
                </g>
            </g>
        </g>
    </g>
</svg>

<?xml version="1.0" encoding="UTF-8" standalone="no"?>
<svg
   xmlns:dc="http://purl.org/dc/elements/1.1/"
   xmlns:cc="http://creativecommons.org/ns#"
   xmlns:rdf="http://www.w3.org/1999/02/22-rdf-syntax-ns#"
   xmlns:svg="http://www.w3.org/2000/svg"
   xmlns="http://www.w3.org/2000/svg"
   xmlns:sodipodi="http://sodipodi.sourceforge.net/DTD/sodipodi-0.dtd"
   xmlns:inkscape="http://www.inkscape.org/namespaces/inkscape"
   width="312"
   height="150"
   viewBox="0 0 312 150"
   version="1.1"
   id="svg31"
   sodipodi:docname="informatica.svg"
   inkscape:version="1.0.1 (3bc2e813f5, 2020-09-07)">
  <metadata
     id="metadata37">
    <rdf:RDF>
      <cc:Work
         rdf:about="">
        <dc:format>image/svg+xml</dc:format>
        <dc:type
           rdf:resource="http://purl.org/dc/dcmitype/StillImage" />
        <dc:title>logo-informatica</dc:title>
      </cc:Work>
    </rdf:RDF>
  </metadata>
  <defs
     id="defs35" />
  <sodipodi:namedview
     pagecolor="#ffffff"
     bordercolor="#666666"
     borderopacity="1"
     objecttolerance="10"
     gridtolerance="10"
     guidetolerance="10"
     inkscape:pageopacity="0"
     inkscape:pageshadow="2"
     inkscape:window-width="1920"
     inkscape:window-height="1017"
     id="namedview33"
     showgrid="false"
     inkscape:zoom="3.3397436"
     inkscape:cx="156"
     inkscape:cy="39.5"
     inkscape:window-x="-8"
     inkscape:window-y="-8"
     inkscape:window-maximized="1"
     inkscape:current-layer="g26"
     inkscape:document-rotation="0" />
  <!-- Generator: Sketch 55.2 (78181) - https://sketchapp.com -->
  <title
     id="title2">logo-informatica</title>
  <desc
     id="desc4">Created with Sketch.</desc>
  <g
     id="logo-informatica"
     stroke="none"
     stroke-width="1"
     fill="none"
     fill-rule="evenodd"
     transform="translate(0.29942418,0.89827255)">
    <g
       id="Logo/Informatica"
       transform="translate(0,0.133333)">
      <g
         id="Group-32">
        <g
           id="g26">
          <path
             id="Fill-1"
             style="fill:#ff4d00;stroke-width:1.04108"
             d="m 171.88583,50.51503 -6.63736,-7.166236 -9.79501,-1.639301 -8.36472,5.557385 23.90588,13.550885 z" />
          <path
             id="Fill-2"
             style="fill:#ff7d00;stroke-width:1.04108"
             d="M 190.86301,40.676513 151.1239,0.39604347 170.99428,60.818439 Z" />
          <path
             id="Fill-3"
             style="fill:#001aff;stroke-width:1.04108"
             d="M 177.62448,40.678204 147.92738,32.3988 147.08957,47.267555 Z" />
          <path
             id="Fill-4"
             style="fill:#e23400;stroke-width:1.04108"
             d="m 135.84476,50.376476 -9.73658,-6.40495 -14.72171,-3.292137 21.21721,21.507166 3.95205,-5.364527 z" />
          <path
             id="Fill-5"
             style="fill:#ff4d00;stroke-width:1.04108"
             d="M 148.97531,2.5772115 111.3858,40.678712 135.84409,50.3758 Z" />
          <path
             id="Fill-6"
             style="fill:#ff7d00;stroke-width:1.04108"
             d="M 168.52759,63.321717 135.84476,50.376476 132.60368,62.186555 151.1239,80.96155 Z" />
          <path
             id="Fill-7"
             style="fill:#373737"
             d="m 47.274177,96.07036 3.570092,-2.10925 v 31.39013 h -3.570092 z" />
          <path
             id="Fill-8"
             style="fill:#373737;stroke-width:0.834443"
             d="M 195.87995,80.998599 V 80.15925 h 3.06332 v 3.240768 h -3.06332 z" />
          <g
             id="Group-31"
             transform="translate(56.505109,92.88618)"
             fill="#373737">
            <path
               d="m 10.294902,9.8944625 c -2.8631242,0 -5.1347066,1.2317495 -6.7634489,3.6643745 v -3.202874 h -3.489933 v 22.10975 h 3.489933 V 19.839462 c 0,-3.861 2.4238763,-6.556874 5.8945722,-6.556874 3.3937477,0 5.4200567,2.357875 5.4200567,6.305 v 12.878125 h 3.491536 v -13.67275 c 0,-2.624376 -0.73101,-4.8425 -2.116082,-6.41875 -1.423547,-1.623376 -3.473903,-2.4797505 -5.926634,-2.4797505"
               id="Fill-9" />
            <path
               d="m 53.456411,21.4305 v 0.0845 c 0,4.6215 -3.129237,8.107125 -7.276438,8.107125 -4.102314,0 -7.316515,-3.59775 -7.316515,-8.191625 v -0.08287 c 0,-4.645875 3.111603,-8.14775 7.237964,-8.14775 4.123154,0 7.354989,3.615625 7.354989,8.230625 M 46.179973,9.894625 c -2.999386,0 -5.771134,1.21875 -7.805459,3.433625 -1.986231,2.162875 -3.079541,5.039125 -3.079541,8.10225 v 0.0845 c 0,6.422 4.746758,11.453 10.806449,11.453 2.999386,0 5.779149,-1.21875 7.823092,-3.433625 2.00066,-2.166125 3.101985,-5.044 3.101985,-8.103875 v -0.08287 c 0,-6.422 -4.765995,-11.453 -10.846526,-11.453"
               id="Fill-11" />
            <path
               d="M 64.763345,15.212925 V 10.3558 h -3.489933 v 22.10975 h 3.489933 V 23.6093 c 0,-5.89225 3.08916,-9.84425 7.869583,-9.84425 h 0.461691 V 9.98855 L 72.878201,9.9788 c -3.37932,-0.147875 -6.35466,1.792375 -8.114856,5.234125"
               id="Fill-13" />
            <path
               d="m 100.0713,9.8944625 c -3.01862,0 -5.363945,1.3341255 -7.157806,4.0771255 -1.340185,-2.6325 -3.663067,-4.0771255 -6.580696,-4.0771255 -3.279927,0 -5.133103,1.7972505 -6.369087,3.5798755 v -3.118375 h -3.489933 v 22.10975 h 3.489933 V 19.881712 c 0,-3.823625 2.297232,-6.599124 5.460134,-6.599124 3.146871,0 5.025696,2.325374 5.025696,6.222124 v 12.961001 h 3.491536 v -12.71075 c 0,-1.971126 0.549861,-3.631876 1.588665,-4.798625 0.961855,-1.079001 2.308453,-1.67375 3.791314,-1.67375 3.220614,0 5.065774,2.299375 5.065774,6.305 v 12.878125 h 3.48993 V 18.833587 c 0,-5.513624 -2.99137,-8.9391245 -7.80546,-8.9391245"
               id="Fill-15" />
            <path
               d="M 146.21505,13.659425 V 10.3558 H 139.66 V 2.658175 l -3.49154,2.06375 V 10.3558 h -3.80093 v 3.303625 h 3.80093 V 26.49855 c 0,5.5185 3.75284,6.344 5.98916,6.344 1.4027,0 2.60342,-0.30225 3.78009,-0.949 l 0.11703,-0.065 v -3.271125 l -0.32543,0.167375 c -1.01476,0.51675 -1.84356,0.729625 -2.85992,0.729625 -2.16097,0 -3.20939,-1.103375 -3.20939,-3.3735 v -12.4215 z"
               id="Fill-17" />
            <path
               d="m 175.20057,26.472875 c -1.86119,2.119 -3.84743,3.147625 -6.07091,3.147625 -4.07988,0 -7.27644,-3.596125 -7.27644,-8.19 v -0.08287 c 0,-4.5695 3.11,-8.14775 7.07925,-8.14775 2.77977,0 4.54157,1.532375 6.03244,3.1915 l 0.16833,0.18525 2.31486,-2.6 -0.13626,-0.154375 c -1.62233,-1.828125 -4.03659,-3.927625 -8.33929,-3.927625 -2.91442,0 -5.62525,1.21875 -7.63232,3.43525 -1.9702,2.172625 -3.0555,5.048875 -3.0555,8.100625 v 0.0845 c 0,3.030625 1.0853,5.887375 3.0555,8.04375 2.00707,2.198625 4.7179,3.40925 7.63232,3.40925 4.33797,0 6.82276,-2.2815 8.5012,-4.268875 l 0.13627,-0.160875 -2.25235,-2.244125 z"
               id="Fill-19" />
            <path
               d="m 126.73282,21.8153 v 2.4635 c 0,3.212625 -2.83908,5.6355 -6.60474,5.6355 -3.37291,0 -4.90867,-2.117375 -4.90867,-4.08525 v -0.0845 c 0,-1.792375 0.99552,-3.92925 5.73747,-3.92925 z m -5.57876,-11.921 c -3.30558,0 -5.65571,0.921375 -7.52011,1.82325 l -0.18115,0.08775 1.05644,3.072875 0.22764,-0.1105 c 1.67683,-0.814125 3.57489,-1.568125 6.10137,-1.568125 3.75124,0 5.89457,1.742 5.89457,5.772 h -6.09175 c -5.68938,0 -8.95007,2.513875 -8.95007,6.89975 v 0.08287 c 0,4.576 3.94521,6.97125 7.84393,6.97125 3.57811,0 5.86732,-1.68675 7.19789,-3.293875 l -0.002,2.834 h 3.33443 v -13.46312 c 0,-2.78525 -0.7262,-5.133375 -2.15616,-6.6495 -1.53737,-1.6315 -3.81055,-2.458625 -6.75543,-2.458625 z"
               id="Fill-21" />
            <path
               d="m 28.2077,8.2948125 c 0,-3.18175 0.806356,-4.3745 3.284737,-4.3745 0.957046,0 1.724928,0.180375 2.895186,0.534625 l 0.216417,0.065 V 1.2455625 L 34.5319,1.2179375 c -1.040407,-0.3965 -2.034325,-0.559 -3.433825,-0.559 -1.894855,0 -3.465886,0.602875 -4.543165,1.74525 -1.202319,1.275625 -1.838747,3.25325 -1.838747,5.72325 v 2.2278755 h -3.79933 v 3.303625 h 3.79933 V 32.465063 H 28.2077 V 13.658938 h 6.555046 V 10.355313 H 28.2077 Z"
               id="Fill-23" />
            <path
               id="Fill-25"
               d="m 150.54019,12.706687 v -2.351374 h 3.48993 v 22.10975 h -3.48993 z" />
            <path
               d="m 194.80719,21.816925 v 2.4635 c 0,3.21425 -2.83907,5.637125 -6.60634,5.637125 -3.37291,0 -4.90867,-2.119 -4.90867,-4.086875 v -0.0845 c 0,-1.792375 0.99552,-3.92925 5.73747,-3.92925 z M 189.22843,9.8943 c -3.30718,0 -5.65731,0.921375 -7.52171,1.82325 l -0.18275,0.08775 1.05964,3.072875 0.22604,-0.108875 c 1.67683,-0.81575 3.5765,-1.56975 6.10137,-1.56975 3.75284,0 5.89617,1.743625 5.89617,5.773625 h -6.09335 c -5.68938,0 -8.95167,2.513875 -8.95167,6.89975 v 0.08288 c 0,4.577625 3.94681,6.972875 7.84714,6.972875 3.5781,0 5.86571,-1.68675 7.19788,-3.2955 l -0.002,2.835625 h 3.33443 V 19.00405 c 0,-2.78525 -0.7262,-5.135 -2.15616,-6.651125 -1.53736,-1.6315 -3.81055,-2.458625 -6.75543,-2.458625 z"
               id="Fill-27" />
            <path
               d="m 201.02928,12.172387 h 0.44566 c 0.13626,-0.0032 0.24687,-0.03737 0.33023,-0.100749 0.085,-0.06338 0.12505,-0.146251 0.12505,-0.25025 0,-0.141375 -0.0353,-0.240501 -0.11062,-0.299 -0.0737,-0.0585 -0.2068,-0.08775 -0.39596,-0.08775 h -0.39436 z m 0,0.370501 v 0.976624 h -0.40238 v -2.455375 h 0.78712 c 0.29176,0 0.5178,0.06338 0.67811,0.190125 0.16031,0.126751 0.24046,0.30875 0.24046,0.550876 0,0.23725 -0.12023,0.417625 -0.3639,0.54275 0.23085,0.0975 0.34787,0.294125 0.35108,0.5915 v 0.1755 c 0,0.165749 0.016,0.286 0.0481,0.359125 v 0.0455 h -0.4136 c -0.0273,-0.06825 -0.0401,-0.193374 -0.0401,-0.370499 0,-0.17875 -0.003,-0.284375 -0.01,-0.316875 -0.0305,-0.18525 -0.1539,-0.28275 -0.37352,-0.28925 z m -1.27767,-0.219375 c 0,0.3315 0.0754,0.638625 0.22764,0.921375 0.1523,0.281125 0.35909,0.503749 0.6204,0.662999 0.26291,0.160876 0.54505,0.238875 0.84964,0.238875 0.30619,0 0.58994,-0.07963 0.85284,-0.243749 0.26291,-0.162501 0.46811,-0.383501 0.61719,-0.663 0.14909,-0.2795 0.22444,-0.585 0.22444,-0.9165 0,-0.32825 -0.0753,-0.632126 -0.22444,-0.911625 -0.14908,-0.277875 -0.35428,-0.49725 -0.61719,-0.658125 -0.2629,-0.160875 -0.54665,-0.2405 -0.85284,-0.2405 -0.30459,0 -0.58834,0.078 -0.85124,0.237249 -0.26131,0.15925 -0.46971,0.378626 -0.6204,0.659751 -0.15069,0.28275 -0.22604,0.586625 -0.22604,0.91325 z m -0.32863,0.0016 c 0,-0.39 0.0898,-0.75075 0.26771,-1.083875 0.17635,-0.333125 0.42322,-0.596376 0.73743,-0.788125 0.31581,-0.19175 0.65566,-0.287625 1.02117,-0.287625 0.3655,0 0.70376,0.09587 1.01796,0.287625 0.31421,0.191749 0.55948,0.455 0.73742,0.788125 0.17795,0.333125 0.26612,0.693875 0.26612,1.083875 0,0.38025 -0.085,0.736125 -0.2565,1.067625 -0.16993,0.3315 -0.4136,0.598 -0.7278,0.7995 -0.31581,0.201499 -0.66048,0.30225 -1.0372,0.30225 -0.37513,0 -0.71979,-0.09912 -1.034,-0.299 -0.31581,-0.199875 -0.55948,-0.466375 -0.73261,-0.797875 -0.17313,-0.3315 -0.2597,-0.687375 -0.2597,-1.0725 z"
               id="Fill-29" />
          </g>
        </g>
      </g>
    </g>
  </g>
</svg>
